X: 1868
T: Sid Beinke's Varsovianna
B: australian traditional tunes wiki
M:3/4
L:1/8
R: Varsovienne
Q: 1/4=100
K:C
V:1 
|:"C"G>ec2G2|"F"A>fd2 (3cdc|"G"B>e d2G2|"C"e4 (3dcA|G>ec2G2|"F"A>fd2 (3cdc|"G"B>c d2G2|"C"c4B>A:|
|:"C"G2A>B c>d|e2-e>d c>e|g2a2g>e|"G"d4f>d|G2A>B c>e|
d2-d>c B>d|1"G"a2g2f2|"C"e2-e>d e>c:|2"G"a2g2 (3ege|"C"c4z2||
% abcbook-tune_id 6342d53a2481635d5b8293ba


% abcbook-boost 0
% abcbook-tablature 
% abcbook-transpose 
% abcbook-lastupdated 1665324389239
% abcbook-soundfonts 
% abcbook-repeats 1
% NFF Book 2014

